**kern	**text
*clefG2	*
*k[b-e-]	*
*M4/4	*
*MM130	*
=1	=1
1r	.
=2	=2
4Bn	bi
8f#X'L	ba
16enL	pu
16dJJ	na
16eKL	fu
8a'	yu
16f#Jk	ka
8f#'L	n
16eL	yo
16dJJ	ru
=3	=3
8enL	ga
16BnL	shi
16dJJ	da
16dKL	i
8e-X	ni
16enJk	ra
8e'L	n
16f#XL	ha
16f#JJ	n
16eLL	sha
16dJ	shi
8BJ	te
=4	=4
4Bn	tsu
8f#XL	bi
16enL	to
16dJJ	de
16eKL	hi
8a'	ka
16f#Jk	te
8r	.
16eLL	ta
16dJJ	ma
=5	=5
8bnL	ni
8a'J	wa
16f#XKL	gu
8a'	chi
16f#Jk	cha
16r	.
8aL	te
[16f#Jk	i
16f#LL]	.
16enJ	ka
8dJ	na
=6	=6
4Bn'	ne
8f#X'L	cho
16enL	to
16dJJ	ha
16eKL	na
8a	so
[16f#Jk	ka
16f#]	.
16r	.
16eLL	ba
16dJJ	ka
=7	=7
8enL	na
16BnL	ji
[16dJJ	sho
16dKL]	.
8e-X	sho
[16enJk	sho
8eL]	.
16f#XL	na
16f#JJ	n
16eLL	da
16dJ	ke
8B'J	do
=8	=8
4Bn	mo
16f#XLL	na
16f#	n
16en	ka
16dJJ	o
16eLL	sa
16a	ma
16a	ra
16f#JJ	na
8f#'L	i
16dL	ne
16f#JJ	ta
=9	=9
8bnL	ba
8aJ	na
16f#XKL	shi
8a'	da
16f#Jk	te
16r	.
[16enLL	te
32eL]	.
32eJ	i
16f#JJ	de
16eLL	hi
16f#	to
16e	tsu
16f#JJ	do
=10	=10
4Bn	o
4r	.
2r	.
=11	=11
1r	.
=12	=12
1r	.
=13	=13
1r	.
=14	=14
4Bn'	ja
8f#X'L	cho
16enL	to
16dJJ	sha
16eKL	be
8a	ro
[16f#Jk	ka
16f#]	.
16r	.
16eLL	bo
16dJJ	ku
=15	=15
8en'L	no
16BnL	hi
16dJJ	bo
16dLL	n
16e-X	de
16e-	i
[16enJJ	te
16e]	.
16r	.
8f#X	myo
16eLL	na
16dJ	to
8B'J	ko
=16	=16
16.BnLL	he
32BJJk	i
8r	.
16f#XLL	bo
16f#	n
16en	o
16dJJ	yo
16eKL	so
8a'	o
16f#Jk	ta
8r	.
16eLL	bo
16dJJ	ku
=17	=17
8bnL	ga
8a'J	zu
16f#XKL	to
8a'	na
16bJk	ya
16bLL	n
16a	de
16a	i
[16f#JJ	ru
16f#LL]	.
16enJ	ko
8dJ	to
=18	=18
4Bn	ju
16f#XLL	ne
16f#	n
16en	wa
16dJJ	ta
16eKL	chi
8a	so
[16f#Jk	na
16f#]	.
16r	.
16eLL	a
16dJJ	ru
=19	=19
8en'L	hi
16BnL	ka
16BJJ	i
16dKL	bu
8e-X	tsu
[16enJk	no
16e]	.
16r	.
16f#XLL	ko
16f#JJ	e
16eLL	ga
16dJ	shi
8BJ	te
=20	=20
16BnKL	shi
8.B'J	n
8f#XL	zo
16enL	o
16dJJ	no
16eLL	mi
16a	ko
16a	n
[16f#JJ	da
16f#]	.
16r	.
16eLL	u
16dJJ	so
=21	=21
8bnL	o
8a'J	tsu
16f#XKL	ki
8a	tsu
[16f#Jk	zu
16f#KL]	.
8a	ke
16f#Jk	ro
16r	.
16enKL	te
8dJ	sa
=22	=22
8.enL	so
16f#XJk	re
8f#L	i
16BnL	ra
16BJJ	i
16r	.
8.d	bo
8eL	ku
16dL	wa
16dJJ	u
=23	=23
8.aL	so
[16f#XJk	tsu
16f#LL]	.
16enJ	ki
[8dJ	de
16d]	.
16r	.
8f#	da
16aKL	ma
8bn	se
[16eJk	na
=24	=24
16eLL]	.
16enJ	i
8dJ	hi
8eL	to
16dL	ya
[16eJJ	mo
8eL]	.
8f#X	no
8e	mo
8dJ	na
*clefF4	*
=25	=25
8BnL	ku
8A	na
8B	a
[8dJ	te
8d]	.
8r	.
8BL	ka
*clefG2	*
8dJ	i
=26	=26
8.enL	bu
[16f#XJk	tsu
8f#L]	.
[8BnJ	ni
16BKL]	.
8.dJ	na
8eL	ri
8dJ	ha
=27	=27
8.aL	te
16f#XJk	cha
16r	.
16enKL	te
[8dJ	sa
16d]	.
16r	.
8f#	a
16aLL	go
16b-	me
16b-	n
[16bnJJ	ne
=28	=28
8bL]	.
16aL	na
16aJJ	ka
16bnLL	na
16b	i
16a	de
16f#XJJ	ze
16f#LL	n
16f#	bu
16en	ho
16dJJ	ra
16eLL	ba
16d	na
16Bn	shi
16dJJ	da
=29	=29
4f#X'	yo
4r	.
4r	.
8f#L	o
16aL	ma
16aJJ	i
=30	=30
8ddL	da
8dd-XJ	ti
16bnLL	na
16bJ	n
8aJ	te
8bL	shu
16ddnL	ta
16ddJJ	i
8f#XL	bo
8enJ	ku
=31	=31
8dL	wa
8BnJ	go
8dL	ma
16aL	ka
[16f#XJJ	su
16f#]	.
16r	.
16bnLL	na
16bJJ	n
8aL	te
8b-XJ	i
=32	=32
8bn'L	ta
8aJ	te
16f#XKL	ko
8a	no
[16f#Jk	ho
16f#LL]	.
16f#	n
16en	shi
16eJJ	n
8eL	wa
8dJ	bu
=33	=33
8f#XL	ki
8a	mi
8bn	ja
[8ddJ	na
16ddKL]	.
8.dd'J	i
8f#L	i
8aJ	tsu
=34	=34
8dd'L	wa
8dd-X	te
8bn'	so
8aJ	po
16bLL	mu
16bJ	i
8ddnJ	te
8f#XL	u
8enJ	so
=35	=35
8dL	o
8enJ	ka
16f#XKL	sa
8a'	ne
16bnJk	te
8r	.
8a	bo
16f#KL	ku
8a	wa
[16f#Jk	kyo
=36	=36
8f#L]	.
16enL	mo
[16dJJ	ma
16dKL]	.
8e-X'	ta
[16enJk	tsu
16eLL]	.
16f#X	re
16e	zu
16f#JJ	re
16eLL	a
16f#	za
16e	wa
16f#JJ	ra
=37	=37
4Bn	u
4r	.
2r	.
=38	=38
1r	.
=39	=39
1r	.
=40	=40
1r	.
=41	=41
1r	.
=42	=42
1r	.
=43	=43
1r	.
=44	=44
1r	.
=45	=45
4Bn	bi
8f#X'L	ba
16enL	pu
16dJJ	ki
16eKL	e
8a	so
16f#Jk	na
8r	.
16eLL	yo
16dJJ	ru
=46	=46
8en'L	ga
16BnL	ki
16dJJ	ra
16dKL	i
8e-X	so
[16enJk	na
16e]	.
16r	.
8f#X	sho
16eLL	jo
16dJ	ni
8BJ	mo
=47	=47
4Bn	tsu
8f#XL	bi
16enL	to
16dJJ	na
16eKL	ki
8a	so
16f#Jk	na
8r	.
16eLL	u
16dJJ	so
=48	=48
8bn'L	ga
16enL	ki
16f#XJJ	ra
16f#KL	i
8a	na
16aJk	se
16aKL	i
8a	sho
16f#Jk	ne
16f#LL	n
16eJ	ni
8dJ	mo
=49	=49
4Bn	so
8f#XL	mo
16enL	o
16dJJ	na
16eKL	ji
8a	yo
16f#Jk	ni
8r	.
16eLL	cha
16dJJ	chi
=50	=50
8en'L	na
16BnL	ri
[16dJJ	so
16dKL]	.
8e-X'	ga
[16enJk	i
16eLL]	.
16eJ	n
8f#X'J	pu
16eLL	to
16dJ	shi
8BJ	te
=51	=51
16BnKL	shi
8.B'J	n
8f#XL	zo
16enL	o
16dJJ	no
16eLL	mi
16a	ko
16a	n
[16f#JJ	da
16f#]	.
16r	.
16eLL	so
16dJJ	re
=52	=52
8bnL	i
16aL	ra
16aJJ	i
16f#XLL	ki
16a	zu
16a	i
16f#JJ	ta
16f#KL	n
8a	da
16f#Jk	bo
32r	.
32f#KLL	ku
16enJ	ra
8dJ	wa
=53	=53
8BnL	ta
16BL	n
[16dJJ	ju
16dLL]	.
16dJ	n
[8enJ	ni
16eKL]	.
8.dJ	ri
8eL	so
8f#XJ	ka
=54	=54
8a'L	na
16f#XL	ta
[16f#JJ	to
16f#LL]	.
16enJ	shi
[8dJ	te
16d]	.
16r	.
8f#	hi
16aKL	to
8bn	ri
[16eJk	bo
=55	=55
8eL]	.
16dL	chi
[16enJJ	ja
16e]	.
16r	.
8d	ko
8eL	no
8f#X	yo
8e	wa
8dJ	i
*clefF4	*
=56	=56
8BnL	ki
16AL	te
16AJJ	i
8BL	ke
8dJ	na
*clefG2	*
4d'	i
8BL	so
8dJ	re
=57	=57
8.enL	mo
[16f#XJk	u
8f#L]	.
8BnJ	so
16r	.
8.d	i
16eLL	ya
16eJ	i
8dJ	ya
=58	=58
8aL	ho
16aL	n
16f#XJJ	shi
16f#LL	n
16enJ	da
[8dJ	yo
16d]	.
16r	.
8f#	ku
16aKL	zu
8b-	re
[16bnJk	so
=59	=59
8bL]	.
8aJ	na
8bnL	no
16aL	ga
[16f#XJJ	no
16f#LL]	.
16f#	de
16en	mi
16dJJ	chi
16eLL	mi
16d	chi
16Bn	te
16dJJ	i
=60	=60
4f#X'	ku
4r	.
4r	.
8f#L	o
16aL	ma
16aJJ	i
=61	=61
8dd'L	da
8dd-XJ	ti
8bn'L	mo
16aL	to
[16bJJ	ki
8bL]	.
8ddn	te
8f#X	bo
8enJ	ku
=62	=62
8dL	no
8BnJ	ko
8dL	ko
16aL	ro
[16f#XJJ	o
16f#]	.
16r	.
8bn	wa
8aL	ga
8b-XJ	ma
=63	=63
8bnL	ma
8a'J	o
16f#XKL	ko
8a	no
[16f#Jk	u
8f#L]	.
8fn	so
8en'	o
8dJ	ho
=64	=64
8f#XL	n
8a	mo
8bn	no
[8ddJ	o
8dd]	.
8r	.
8f#L	sa
8aJ	bi
=65	=65
8ddL	shi
8dd-XJ	yo
16bnLL	na
16b	n
16a	te
[16bJJ	i
16b]	.
16r	.
8ddn	ta
8f#XL	bo
8enJ	ku
=66	=66
8dL	wa
8enJ	ka
16f#XKL	wa
8a	ra
16bnJk	na
8b'L	i
8aJ	ni
16f#KL	ya
8a	ke
[16f#Jk	so
=67	=67
8f#L]	.
16enL	na
[16dJJ	ho
16dKL]	.
8e-X	do
[16enJk	tsu
16eLL]	.
16f#X	ne
16e	zu
16f#JJ	ne
16eLL	a
16f#	ki
16e	re
16f#JJ	te
=68	=68
4Bn	ru
4r	.
2r	.
=69	=69
1r	.
=70	=70
1r	.
=71	=71
1r	.
=72	=72
1r	.
=73	=73
1r	.
=74	=74
1r	.
=75	=75
2f#X	o
[4a	ma
16aKL]	.
8.a'J	i
=76	=76
8ddL	da
8dd-XJ	ti
8bnL	mo
16aL	ki
[16bJJ	ra
16bLL]	.
16bJ	i
8ddnJ	da
8f#XL	ho
8enJ	ra
=77	=77
8dL	ki
8BnJ	ka
16dKL	se
8a	te
[16f#XJk	yo
16f#]	.
16r	.
8bn'	a
16aKL	ki
8b-X	re
[16bnJk	cha
=78	=78
16bLL]	.
16bnJ	u
8aJ	yo
8f#XL	na
16aL	bo
[16f#JJ	ku
8f#L]	.
16fnL	na
16fJJ	n
8en'L	te
8dJ	mo
=79	=79
8f#XL	su
8a	ku
8bn	e
[8ddJ	na
16ddKL]	.
8.dd'J	i
16f#LL	mo
16f#	n
16a	da
16aJJ	i
=80	=80
16ddLL	na
16ddJ	i
8dd-XJ	ze
16bnLL	na
16b	n
16a	te
[16bJJ	i
16b]	.
16r	.
8ddn	te
8dL	ki
8enJ	mi
=81	=81
8f#XL	wa
8enJ	ka
16f#KL	wa
8a	ra
[16bnJk	na
16bLL]	.
16bJ	i
8aJ	a
16f#KL	mi
8a'	su
[16f#Jk	cha
=82	=82
8f#L]	.
8enJ	ta
16dKL	ma
8e-X'	ta
[16enJk	bu
16eLL]	.
16f#X	ki
16e	mi
16f#JJ	na
16eLL	bo
16d	ku
16Bn	ni
[16eJJ	tsu
=83	=83
16eLL]	.
16f#X	ne
16en	zu
16f#JJ	ne
16eLL	o
16f#	bo
16a	re
16ddJJ	te
4bn	ku
4r	.
==	==
*-	*-
